X: 1
T: Breaker's Reel
C: Keith Murphy
R: reel
Z: 2015 John Chambers <jc:trillian.mit.edu>
S: Paul Lizotte's Joy of Sets collection
S: printed copy of unknown origin
M: C|
L: 1/8
K: Edor
|:\
"Em"DEEE DEFD- | "D"Ddcd BAFD |\
"Em"EGFD EDB,D | "D"A,2FD EFED |
DEEE DEFD- | "D"Ddcd "Bm"BAFD |\
"Em"EGFD EDB,D | "Bm"EFGA BAGF :|
|:\
"Em"Eeef edBc | "D"dcde fedB |\
"D"ABAF "Bm"d3f | "Bm"fedf "D"edcA |
"Em"Beef edBc | "D"dcde fedc |\
"Em"BcBA "D"F/E/DEF | "Bm"EDCA, B,2CD :|
